X:1
T:Title
%%score { ( 1 3 ) | ( 2 4 ) }
L:1/8
M:4/4
K:Ab
V:1 treble nm="Grand Piano"
V:3 treble 
V:2 bass 
V:4 bass 
V:1
 z4 z2 z[Q:1/4=100] [CE] | [CE][CE][DF][DG] [CA]2 [Ec]2 | BAGF [CE]3 [B,D] | %3
 [A,C][CE][CA][DB] [Ec][EA][Ed][Ec] | [EB]6 z [DE] |[M:3/4] [CE][CE] [DF][DG] [CA]2 | %6
[M:1/4] [Ec]2 |[M:4/4] BAGF [CE]3 [CE] | [Ee][_GA][Fe][Fd] [Ec]2 [DB]2 | %9
[M:7/8] [CA]-[CA]-[CA]- [CA]3 z |[M:1/8] c |[M:4/4] eeec e3 [E_Gc] | [FA][FA][FA][DF] [FA]3 [DF] | %13
[M:1/4] [CE][CA] |[M:3/4] [DB][Ec] e2 c2 |[M:4/4] B6[K:bass] z2[K:treble] | %16
[M:3/4] [CE][CE] [DF][DG] [CA]2 |[M:1/4] [Ec]2 |[M:4/4] BAGF [CE]3 [CE] | %19
 [Ee][_GA][Fe][Fd] [Ec]2 [DB]2 |[M:15/8] [CA]6 z3 z6 |] %21
V:2
 z4 z2 z [A,,A,] | [A,,A,][A,,A,][A,,A,][A,,E,] [A,,E,]2 [A,,A,]2 | %2
 [D,F,D][D,F,D][D,F,D][D,A,D] [A,,A,]3 [A,,E,] | %3
 [A,,E,][A,,A,][A,,E,][A,,E,] [A,,A,][C,A,][B,,G,][A,,A,] | [E,G,]6 z [E,G,] | %5
[M:3/4] [A,,A,][A,,A,] [A,,A,][A,,E,] [A,,E,]2 |[M:1/4] [A,,A,]2 | %7
[M:4/4] [D,F,D][D,F,D][D,F,D][D,A,D] [A,,A,]3 [A,,A,] | [C,A,][C,A,][D,A,][D,A,] [E,A,]2 [E,G,]2 | %9
[M:7/8] [A,,A,]-[A,,A,]-[A,,A,]- [A,,A,]3 z |[M:1/8][K:treble] [A,E] | %11
[M:4/4] [A,CA][A,CA][A,CA][A,E] [A,CA]3[K:bass] A,, | [D,D][D,D][D,D][D,A,] [D,D]3 [D,A,] | %13
[M:1/4] [A,,A,][A,,A,] |[M:3/4] [A,,A,][A,,A,] [A,CE]2 [A,E]2 |[M:4/4] [G,E]6 z2 | %16
[M:3/4] [A,,A,][A,,A,] [A,,A,][A,,E,] [A,,E,]2 |[M:1/4] [A,,A,]2 | %18
[M:4/4] [D,F,D][D,F,D][D,F,D][D,A,D] [A,,A,]3 [A,,A,] | [C,A,][C,A,][D,A,][D,A,] [E,A,]2 [E,G,]2 | %20
[M:15/8] [A,,A,]6 z3 z6 |] %21
V:3
 x8 | x8 | x8 | x8 | x8 |[M:3/4] x6 |[M:1/4] x2 |[M:4/4] x8 | x8 |[M:7/8] x7 |[M:1/8] x | %11
[M:4/4] x8 | x8 |[M:1/4] x2 |[M:3/4] x6 |[M:4/4] z2[K:bass] E,>F, E,D,C,[K:treble][DE] | %16
[M:3/4] x6 |[M:1/4] x2 |[M:4/4] x8 | x8 |[M:15/8] x15 |] %21
V:4
 x8 | x8 | x8 | x8 | x8 |[M:3/4] x6 |[M:1/4] x2 |[M:4/4] x8 | x8 |[M:7/8] x7 |[M:1/8][K:treble] x | %11
[M:4/4] x7[K:bass] x | x8 |[M:1/4] x2 |[M:3/4] x6 |[M:4/4] E,2 z2 z2 z [B,,G,] |[M:3/4] x6 | %17
[M:1/4] x2 |[M:4/4] x8 | x8 |[M:15/8] x15 |] %21

